X:204 
T:Tatter Jack Walsh
F:file ID: cre.5/204tatter
B:CRE5.012 (An tAthair Jack Walsh)
S:Aggie Whyte (Galway/NY)
M:6/8
Q:160
R:jig
K:G
"D modal"
A|d^cd fed|cAB cde|d^cA GFG|ADD EFG|
Ade fed|cAB c2d|eag edc|AGE D2:|
z|:d3 afd|d3 afd|c3 gec|Gce gfg|
agf ged|cAB c2d|ega edc|AGE DFA :|

%%%

